assets/Other/icon-profit.svg

<?xml version="1.0" encoding="UTF-8"?>
<svg viewBox="0 0 18 18" version="1.1" xmlns="http://www.w3.org/2000/svg" xmlns:xlink="http://www.w3.org/1999/xlink">
    <title>icon-profit</title>
    <g id="icon-profit" stroke="none" stroke-width="1" fill-rule="evenodd">
        <path d="M6.94872723,10.7525115 C7.25990428,11.807025 7.94215754,12.5393655 8.94510789,12.9051056 L7.318,12.9049873 L7.31882569,13.4991398 L7.76221311,13.4991297 C7.92971457,13.4991297 8.01359395,13.6982425 7.89513362,13.8147247 L6.74480257,14.9458474 C6.67136952,15.0180542 6.55234313,15.0180542 6.47891008,14.9458474 L5.32857903,13.8147247 C5.2101187,13.6982425 5.29399808,13.4991297 5.46149954,13.4991297 L5.90491784,13.4991398 L5.904,12.9049873 L5.11753233,12.9051056 C4.77789804,12.9051056 4.50001544,12.6318631 4.50001544,12.2979001 L4.50001544,11.359717 C4.50001544,11.0257539 4.77789804,10.7525115 5.11753233,10.7525115 L6.94872723,10.7525115 Z M11.3135271,4.7027358 L11.3135271,5.44261571 C12.3837353,5.71666779 13.2325637,6.52961476 13.3524649,7.40652071 L11.7656009,7.84497369 C11.590329,7.35172042 11.2212597,6.84014978 10.5016467,6.84014978 C9.87430101,6.84014978 9.58828776,7.11425246 9.58828776,7.37914586 C9.58828776,7.66230603 9.91119764,7.82670692 10.6215479,8.0002665 C12.3652612,8.41134462 13.5000515,9.03246525 13.5000515,10.3112906 C13.5000515,11.654075 12.5590586,12.3756376 11.3135271,12.5491971 L11.3135271,13.3804615 L9.81893032,13.3804615 L9.81893032,12.5400891 C8.51802806,12.329996 7.77999245,11.6083828 7.48476792,10.5122757 L9.2469553,9.98243827 C9.42217572,10.5396505 9.94809427,11.0146876 10.6953926,11.0146876 C11.2858417,11.0146876 11.5441696,10.8228107 11.5441696,10.5396505 C11.5441696,10.0920895 11.1751003,9.9641715 10.6123366,9.81803738 C8.59187279,9.33394279 7.67851384,8.78578802 7.67851384,7.5709722 C7.67851384,6.50223991 8.37044152,5.64355013 9.81893032,5.42434894 L9.81893032,4.7027358 L11.3135271,4.7027358 Z M7.12424097,7.96530158 C7.24450238,8.75532654 7.72971629,9.27544866 8.37918968,9.64341519 L6.80097087,10.1178957 L5.1175169,10.1178957 C4.7778826,10.1178957 4.5,9.84465322 4.5,9.51069019 L4.5,8.57250708 C4.5,8.23854406 4.7778826,7.96530158 5.1175169,7.96530158 L7.12424097,7.96530158 Z M6.74479742,3.05414249 L7.89512848,4.18526515 C8.0135888,4.3017474 7.92970942,4.50086021 7.76220797,4.50086021 L7.31877423,4.50086021 L7.318,5.17798735 L8.63416241,5.17808663 C8.30049744,5.33484685 8.01376377,5.5384631 7.77756355,5.78913777 C7.38348485,6.20724936 7.15366565,6.73647956 7.10503619,7.33068074 L5.11755806,7.33068074 C4.77792377,7.33068074 4.50004117,7.05743827 4.50004117,6.72347524 L4.50004117,5.78529213 C4.50004117,5.45132911 4.77792377,5.17808663 5.11755806,5.17808663 L5.904,5.17798735 L5.90486638,4.50086021 L5.46149439,4.50086021 C5.29399293,4.50086021 5.21011355,4.3017474 5.32857388,4.18526515 L6.47890494,3.05414249 C6.55233799,2.98193564 6.67136437,2.98193564 6.74479742,3.05414249 Z"></path>
    </g>
</svg>

<svg xmlns="http://www.w3.org/2000/svg" viewBox="0 0 18 18"><title>icon-profit</title><path fill-rule="evenodd" d="M6.949 10.753c.31 1.054.993 1.786 1.996 2.152H7.318v.594h.444c.168 0 .252.2.133.316l-1.15 1.13a.19.19 0 0 1-.266 0l-1.15-1.13c-.119-.117-.035-.316.132-.316h.444l-.001-.594h-.786a.614.614 0 0 1-.618-.607v-.938c0-.334.278-.607.618-.607zm4.365-6.05v.74c1.07.274 1.919 1.087 2.038 1.964l-1.586.438c-.176-.493-.545-1.005-1.264-1.005-.628 0-.914.274-.914.54 0 .282.323.447 1.034.62 1.743.411 2.878 1.032 2.878 2.311 0 1.343-.94 2.065-2.186 2.238v.831H9.819v-.84c-1.301-.21-2.039-.932-2.334-2.028l1.762-.53a1.485 1.485 0 0 0 1.448 1.033c.59 0 .85-.192.85-.475 0-.448-.37-.576-.933-.722-2.02-.484-2.933-1.032-2.933-2.247 0-1.069.691-1.927 2.14-2.147v-.721zm-4.19 3.262c.12.79.606 1.31 1.255 1.678l-1.578.475H5.118A.614.614 0 0 1 4.5 9.51v-.938c0-.334.278-.608.618-.608zm-.38-4.91 1.151 1.13c.119.117.035.316-.133.316H7.32l-.001.677h1.316q-.501.235-.856.611a2.5 2.5 0 0 0-.673 1.542H5.118a.614.614 0 0 1-.618-.608v-.938c0-.334.278-.607.618-.607h.786v-.677h-.443c-.167 0-.25-.2-.132-.316l1.15-1.13a.19.19 0 0 1 .266 0"/></svg>
